dist/svg/u1F649.svg

<?xml version="1.0" encoding="UTF-8"?><svg id="Layer_1" xmlns="http://www.w3.org/2000/svg" viewBox="0 0 40 40"><g><g><rect x="4.71496" y="4.51936" width="30.57008" height="30.57008" rx="11.98949" ry="11.98949" transform="translate(19.86169 -8.34156) rotate(45)" style="fill:#a54d3c;"/><g><g><circle cx="16.22292" cy="17.91484" r="6.29514" style="fill:#fbbd58;"/><circle cx="23.77708" cy="17.91484" r="6.29514" style="fill:#fbbd58;"/><circle cx="20.15108" cy="24.20998" r="6.29514" style="fill:#fbbd58;"/></g><circle cx="23.77708" cy="17.93073" r="1.68287"/><circle cx="16.22292" cy="17.93073" r="1.68287"/><g><circle cx="19.05208" cy="20.2821" r=".5209"/><circle cx="20.94792" cy="20.2821" r=".5209"/></g><path d="M21.92016,25.19802c.30784-.04606,.58787,.22411,.52129,.52817-.25989,1.18699-1.25429,2.07078-2.44149,2.07078-1.18706,0-2.18151-.88379-2.44141-2.07078-.06658-.30406,.21345-.57423,.52129-.52817h3.84032Z" style="fill:#f93052;"/></g></g><path d="M7.36461,22.79573c.57601-.26682,.95519-.8359,1.01647-1.46774,.21263-2.19229,.70904-7.37802,.70904-8.00972,0-.80387-1.01357-2.2019-3.00577-1.18833-1.81706,.92447-3.80857,5.07635-4.25076,9.0346-.08664,.77555,.31546,1.54419,1.02887,1.86046,.9505,.42137,2.48458,.7053,4.50214-.22927Z" style="fill:#fbbd58;"/><polygon points="8.38108 21.32799 11.47446 33.03257 8.78177 30.33987 8.38108 21.32799" style="fill:#6a170f;"/><path d="M6.17259,36.71681h0c-2.45152,.65688-4.82446-1.28544-4.66497-3.81843l.32598-11.57039h6.54749l.53518,12.03688c-.10014,1.59046-1.20437,2.93949-2.74367,3.35194Z" style="fill:#a54d3c;"/><path d="M32.63539,22.79573c-.57601-.26682-.95519-.8359-1.01647-1.46774-.21263-2.19229-.70904-7.37802-.70904-8.00972,0-.80387,1.01357-2.2019,3.00577-1.18833,1.81706,.92447,3.80857,5.07635,4.25076,9.0346,.08664,.77555-.31546,1.54419-1.02887,1.86046-.9505,.42137-2.48458,.7053-4.50214-.22927Z" style="fill:#fbbd58;"/><polygon points="31.61892 21.32799 28.52554 33.03257 31.21823 30.33987 31.61892 21.32799" style="fill:#6a170f;"/><path d="M33.82741,36.71681h0c2.45152,.65688,4.82446-1.28544,4.66497-3.81843l-.32598-11.57039h-6.54749l-.53518,12.03688c.10014,1.59046,1.20437,2.93949,2.74367,3.35194Z" style="fill:#a54d3c;"/></g><rect width="40" height="40" style="fill:none;"/></svg>

<svg id="Layer_1" data-name="Layer 1" xmlns="http://www.w3.org/2000/svg" viewBox="0 0 40 40"><defs><style>.cls-1{fill:#a54d3c;}.cls-2{fill:#fbbd58;}.cls-3{fill:#f93052;}.cls-4{fill:#6a170f;}.cls-5{fill:none;}</style></defs><rect class="cls-1" x="4.715" y="4.519" width="30.57" height="30.57" rx="11.989" transform="translate(19.862 -8.342) rotate(45)"/><circle class="cls-2" cx="16.223" cy="17.915" r="6.295"/><circle class="cls-2" cx="23.777" cy="17.915" r="6.295"/><circle class="cls-2" cx="20.151" cy="24.21" r="6.295"/><circle cx="23.777" cy="17.931" r="1.683"/><circle cx="16.223" cy="17.931" r="1.683"/><circle cx="19.052" cy="20.282" r="0.521"/><circle cx="20.948" cy="20.282" r="0.521"/><path class="cls-3" d="M21.92,25.2a.454.454,0,0,1,.521.528,2.474,2.474,0,0,1-4.882,0,.454.454,0,0,1,.521-.528Z"/><path class="cls-2" d="M7.365,22.8a1.8,1.8,0,0,0,1.016-1.468c.213-2.192.709-7.378.709-8.01,0-.8-1.013-2.2-3.006-1.188-1.817.924-3.808,5.076-4.25,9.035a1.805,1.805,0,0,0,1.028,1.86A5.291,5.291,0,0,0,7.365,22.8Z"/><polygon class="cls-4" points="8.381 21.328 11.474 33.033 8.782 30.34 8.381 21.328"/><path class="cls-1" d="M6.173,36.717h0A3.712,3.712,0,0,1,1.508,32.9l.326-11.57H8.381l.535,12.037A3.712,3.712,0,0,1,6.173,36.717Z"/><path class="cls-2" d="M32.635,22.8a1.8,1.8,0,0,1-1.016-1.468c-.213-2.192-.709-7.378-.709-8.01,0-.8,1.013-2.2,3.006-1.188,1.817.924,3.808,5.076,4.25,9.035a1.805,1.805,0,0,1-1.028,1.86A5.291,5.291,0,0,1,32.635,22.8Z"/><polygon class="cls-4" points="31.619 21.328 28.526 33.033 31.218 30.34 31.619 21.328"/><path class="cls-1" d="M33.827,36.717h0A3.712,3.712,0,0,0,38.492,32.9l-.326-11.57H31.619l-.535,12.037A3.712,3.712,0,0,0,33.827,36.717Z"/><rect class="cls-5" width="40" height="40"/></svg>
